public/img/svg/messenger.svg

<svg xmlns="http://www.w3.org/2000/svg" width="512" height="512" viewBox="0 0 512 512"><path d="M426.08 70.95C380.61 30.36 320.2 8 256 8S131.39 30.36 85.92 70.95C40.19 111.78 15 166.13 15 224c0 45.95 15.8 89.66 45.74 126.64l-27.6 143.85a8 8 0 0011.41 8.68l144.58-71.6A266.9 266.9 0 00256 440c64.2 0 124.61-22.36 170.08-62.95C471.81 336.22 497 281.87 497 224s-25.19-112.22-70.92-153.05zM256 424a250.962 250.962 0 01-65.64-8.65 7.982 7.982 0 00-5.64.55L51.89 481.68l25.27-131.71a8.012 8.012 0 00-1.73-6.65C46.36 308.64 31 267.38 31 224 31 113.72 131.93 24 256 24s225 89.72 225 200-100.93 200-225 200z"/><path d="M257 248a24 24 0 1124-24 24.028 24.028 0 01-24 24zm0-32a8 8 0 108 8 8.009 8.009 0 00-8-8zm-80 32a24 24 0 1124-24 24.028 24.028 0 01-24 24zm0-32a8 8 0 108 8 8.009 8.009 0 00-8-8zm160-16a24 24 0 1024 24 24.032 24.032 0 00-24-24zm0 32a8 8 0 118-8 8.011 8.011 0 01-8 8z"/></svg>

<?xml version="1.0"?>
<svg xmlns="http://www.w3.org/2000/svg" width="512" height="512" viewBox="0 0 512 512"><g><path d="M426.08,70.95C380.61,30.36,320.2,8,256,8S131.39,30.36,85.92,70.95C40.19,111.78,15,166.13,15,224c0,45.95,15.8,89.66,45.74,126.64L33.14,494.49a8,8,0,0,0,11.41,8.68l144.58-71.6A266.9,266.9,0,0,0,256,440c64.2,0,124.61-22.36,170.08-62.95C471.81,336.22,497,281.87,497,224S471.81,111.78,426.08,70.95ZM256,424a250.962,250.962,0,0,1-65.64-8.65,7.982,7.982,0,0,0-5.64.55L51.89,481.68,77.16,349.97a8.012,8.012,0,0,0-1.73-6.65C46.36,308.64,31,267.38,31,224,31,113.72,131.93,24,256,24s225,89.72,225,200S380.07,424,256,424Z"/><path d="M257,248a24,24,0,1,1,24-24A24.028,24.028,0,0,1,257,248Zm0-32a8,8,0,1,0,8,8A8.009,8.009,0,0,0,257,216Z"/><path d="M177,248a24,24,0,1,1,24-24A24.028,24.028,0,0,1,177,248Zm0-32a8,8,0,1,0,8,8A8.009,8.009,0,0,0,177,216Z"/><path d="M337,200a24,24,0,1,0,24,24A24.032,24.032,0,0,0,337,200Zm0,32a8,8,0,1,1,8-8A8.011,8.011,0,0,1,337,232Z"/></g></svg>
